X: 35577
T: Ryan's Rant
R: reel
M: 4/4
K: Adorian
cAAA cAeA|cAAc BAGB|c2 AB cdef|gedc BAGB|
cAAA (3cBA eA|cAAc BAGB|c2 AB cdef|gedc BAGB:|
|:c3g a2gc|c2ge dBGB|c3g a2ga|gedc BAGB|
c3g a2gc|c2ge dBGB|ABcd efga|gedc BAGB:|

